X:155
T: Polly Put the Kettle On
S: "Roche Collection of Traditional Irish Music" [I/75/196]
L: 1/8
M: 4/4
R: reel
K: Ador
cded cA A2 | BGdc BG G2 | cded cA A2 | EDEG A2 A2 :|
cdef g2 fg | aged cA A2 | cdef g2 fg | ageg a2 a2 |
cdef g2 fg | aged cA A2 | cded cA A2 | EDEG A2 A2 |]
